!!!COM:	Bach, Johann Sebastian
!!!CDT:	1685/02/21/-1750/07/28/
!!!OTL@@DE:	Herr Jesu Christ, ich schrei zu dir
!!!SCT:	BWV 334
!!!PC#:	73
!!!AGN:	chorale
**kern	**kern	**kern	**kern
*ICvox	*ICvox	*ICvox	*ICvox
*Ibass	*Itenor	*Ialto	*Isoprn
*I"Bass	*I"Tenor	*I"Alto	*I"Soprano
*>[A,A,B]	*>[A,A,B]	*>[A,A,B]	*>[A,A,B]
*>norep[A,B]	*>norep[A,B]	*>norep[A,B]	*>norep[A,B]
*>A	*>A	*>A	*>A
*clefF4	*clefGv2	*clefG2	*clefG2
*k[b-e-]	*k[b-e-]	*k[b-e-]	*k[b-e-]
*g:	*g:	*g:	*g:
*M4/4	*M4/4	*M4/4	*M4/4
*met(c)	*met(c)	*met(c)	*met(c)
*MM100	*MM100	*MM100	*MM100
4G	4B-	4d	4g
=1	=1	=1	=1
4C	4A	4e-	4g
4D	4A	8dL	4f#
.	.	8cJ	.
4E-	4G	4B-	4g
8DL	4c	4e-	4a
8CJ	.	.	.
=2	=2	=2	=2
4D	8F#	4d	4b-
.	4G	.	.
4D	.	4d	4a
.	8F#	.	.
4GG;	4B-;	4d;	4g;
4G	4B-	4d	4g
=3	=3	=3	=3
4G	4c	4e-	4a
4F#	4c	4d	4a
4F	4B	4d	4dd
4E-	4c	8gL	4cc
.	.	8f#J	.
=4	=4	=4	=4
4D	4d	2g	2b-
4C#	8eL	.	.
.	8GJ	.	.
4D;	4d;	4f#;	4a;
=:|!	=:|!	=:|!	=:|!
*>B	*>B	*>B	*>B
4B-	4d	4g	4dd
=5	=5	=5	=5
8B-L	8e-XL	8gL	4cc
8AJ	8fJ	8fnXJ	.
4.G	8gL	8fL	4b-
.	8B-J	8e-J	.
.	8cL	8e-L	8aL
8F	8dJ	8dJ	8b-J
4E-	8GL	8cL	4cc
.	8cJ	8aJ	.
=6	=6	=6	=6
8DL	8dL	8f#	4b-
8CJ	8e-J	4g	.
4D	8AL	.	4a
.	8dJ	8f#	.
4GG;	4B-;	4d;	4g;
4G	4d	8gL	4b-
.	.	8fJ	.
=7	=7	=7	=7
8GL	8c#L	8eL	4a
8FJ	8dJ	8dJ	.
4E	4e	8dL	4g
.	.	8c#J	.
[2D	4.A	8dL	8fL
.	.	8enXJ	8enXJ
.	.	8fL	8dL
.	8G	8c#XJ	8eJ
=8	=8	=8	=8
8DL]	8AL	8d	4f
8AAJ	8cJ	4f	.
8BB-L	8dL	.	4g
8CJ	8cJ	8e	.
4FF;	4c;	4f;	4a;
8FL	4c	4f	4a
8E-XJ	.	.	.
=9	=9	=9	=9
8DL	4d	8fL	4b-
8E-J	.	8gJ	.
8DL	4e-	4a	4cc
8CJ	.	.	.
8BB-L	4f	4a	4.dd
8CJ	.	.	.
8BB-L	4f#	[4d	.
8AAJ	.	.	8cc
=10	=10	=10	=10
8GGL	4g	4d]	4b-
8BB-J	.	.	.
8E-L	4G	8cL	8ccL
8DJ	.	8dJ	8b-J
8CL	4G	4e-	2a
8AAJ	.	.	.
4D	4F#	8dL	.
.	.	8cJ	.
=11	=11	=11	=11
2.GG;	2.D;	2.B;	2.g;
==	==	==	==
*-	*-	*-	*-
!!!hum2abc: -Q ''
!!!title: @{PC#}. @{OTL@@DE}
!!!YOR1: 371 vierstimmige Choralges&auml;nge von Johann Sebastian Bach, 
!!!YOR2: 4th ed. by Alfred D&ouml;rffel (Leipzig: Breitkopf und H&auml;rtel, 
!!!YOR2: c.1875). 178 pp. Plate "V.A.10".  reprint: J.S. Bach, 371 Four-Part 
!!!YOR4: Chorales (New York: Associated Music Publishers, Inc., c.1940).
!!!SMS: B&H, 4th ed, Alfred D&ouml;rffel, c.1875, plate V.A.10
!!!EED:  Craig Stuart Sapp
!!!EEV:  2009/05/22
